;FLAVOR:Marlin
;TIME:5386
;Filament used: 3.73346m
;Layer height: 0.2
;MINX:68.15
;MINY:68.75
;MINZ:0.2
;MAXX:166.85
;MAXY:166.25
;MAXZ:2
;Generated with Cura_SteamEngine 5.0.0
M140 S70
M105
M190 S70
M104 S240
M105
M109 S240
M82 ;absolute extrusion mode
; Ender 3 Custom Start G-code
G92 E0 ; Reset Extruder
G28 ; Home all axes
G1 Z2.0 F3000 ; Move Z Axis up little to prevent scratching of Heat Bed
G1 X0.1 Y20 Z0.3 F5000.0 ; Move to start position
G1 X0.1 Y200.0 Z0.3 F1500.0 E15 ; Draw the first line
G1 X0.4 Y200.0 Z0.3 F5000.0 ; Move to side a little
G1 X0.4 Y20 Z0.3 F1500.0 E30 ; Draw the second line
G92 E0 ; Reset Extruder
G1 Z2.0 F3000 ; Move Z Axis up little to prevent scratching of Heat Bed
G1 X5 Y20 Z0.3 F5000.0 ; Move over to prevent blob squish
G92 E0
G92 E0
G1 F2700 E-5
;LAYER_COUNT:10
;LAYER:0
M107
G0 F6000 X71.348 Y72.014 Z0.2
G0 X68.151 Y80.275
;TYPE:SKIRT
G1 F2700 E0
G1 F900 X68.16 Y79.61 E0.02212
G1 X68.213 Y78.674 E0.0533
G1 X68.345 Y77.745 E0.08451
G1 X68.556 Y76.831 E0.11571
G1 X68.844 Y75.939 E0.14689
G1 X69.207 Y75.074 E0.17809
G1 X69.642 Y74.243 E0.20928
G1 X70.146 Y73.453 E0.24045
G1 X70.716 Y72.708 E0.27165
G1 X71.348 Y72.014 E0.30287
G1 X72.036 Y71.377 E0.33405
G1 X72.776 Y70.801 E0.36524
G1 X73.562 Y70.289 E0.39644
G1 X74.389 Y69.847 E0.42763
G1 X75.251 Y69.477 E0.45883
G1 X76.141 Y69.181 E0.49003
G1 X77.053 Y68.963 E0.52122
G1 X77.98 Y68.822 E0.5524
G1 X78.851 Y68.763 E0.58144
G1 X79.48 Y68.75 E0.60236
G1 X155.143 Y68.75 E3.11893
G1 X155.999 Y68.761 E3.1474
G1 X156.935 Y68.815 E3.17858
G1 X157.863 Y68.947 E3.20976
G1 X158.777 Y69.159 E3.24096
G1 X159.669 Y69.448 E3.27215
G1 X160.534 Y69.811 E3.30335
G1 X161.364 Y70.247 E3.33453
G1 X162.155 Y70.752 E3.36575
G1 X162.899 Y71.323 E3.39694
G1 X163.592 Y71.955 E3.42814
G1 X164.229 Y72.643 E3.45932
G1 X164.804 Y73.384 E3.49052
G1 X165.315 Y74.17 E3.5217
G1 X165.757 Y74.998 E3.55292
G1 X166.126 Y75.86 E3.5841
G1 X166.421 Y76.75 E3.61529
G1 X166.639 Y77.662 E3.64648
G1 X166.779 Y78.59 E3.67769
G1 X166.837 Y79.451 E3.70639
G1 X166.85 Y80.08 E3.72732
G1 X166.849 Y154.65 E6.20753
G1 X166.84 Y155.377 E6.23171
G1 X166.789 Y156.314 E6.26292
G1 X166.657 Y157.242 E6.29409
G1 X166.448 Y158.156 E6.32528
G1 X166.161 Y159.049 E6.35648
G1 X165.799 Y159.915 E6.38769
G1 X165.365 Y160.746 E6.41888
G1 X164.861 Y161.537 E6.45007
G1 X164.292 Y162.282 E6.48125
G1 X163.661 Y162.977 E6.51247
G1 X162.974 Y163.615 E6.54366
G1 X162.235 Y164.192 E6.57484
G1 X161.449 Y164.704 E6.60604
G1 X160.623 Y165.147 E6.63721
G1 X159.761 Y165.519 E6.66844
G1 X158.872 Y165.815 E6.6996
G1 X157.96 Y166.035 E6.73081
G1 X157.033 Y166.176 E6.76199
G1 X156.149 Y166.237 E6.79147
G1 X155.52 Y166.25 E6.81239
G1 X79.715 Y166.249 E9.33368
G1 X79.017 Y166.24 E9.35689
G1 X78.081 Y166.188 E9.38807
G1 X77.152 Y166.056 E9.41928
G1 X76.238 Y165.846 E9.45047
G1 X75.345 Y165.559 E9.48167
G1 X74.48 Y165.196 E9.51287
G1 X73.649 Y164.762 E9.54405
G1 X72.858 Y164.258 E9.57525
G1 X72.113 Y163.688 E9.60645
G1 X71.419 Y163.057 E9.63765
G1 X70.782 Y162.37 E9.66881
G1 X70.205 Y161.63 E9.70002
G1 X69.693 Y160.844 E9.73122
G1 X69.25 Y160.017 E9.76242
G1 X68.879 Y159.156 E9.7936
G1 X68.583 Y158.266 E9.8248
G1 X68.364 Y157.354 E9.85599
G1 X68.223 Y156.427 E9.88718
G1 X68.163 Y155.538 E9.91682
G1 X68.15 Y154.908 E9.93777
G1 X68.151 Y80.275 E12.42008
G0 F6000 X68.551 Y80.281
G1 F900 X68.56 Y79.616 E12.4422
G1 X68.612 Y78.696 E12.47285
G1 X68.744 Y77.785 E12.50346
G1 X68.955 Y76.889 E12.53408
G1 X69.242 Y76.014 E12.56471
G1 X69.605 Y75.168 E12.59533
G1 X70.039 Y74.356 E12.62595
G1 X70.542 Y73.585 E12.65657
G1 X71.111 Y72.861 E12.68719
G1 X71.739 Y72.189 E12.71779
G1 X72.424 Y71.573 E12.74843
G1 X73.16 Y71.02 E12.77905
G1 X73.941 Y70.532 E12.80968
G1 X74.761 Y70.114 E12.84029
G1 X75.615 Y69.769 E12.87092
G1 X76.495 Y69.499 E12.90154
G1 X77.395 Y69.307 E12.93215
G1 X78.309 Y69.193 E12.96278
G1 X78.862 Y69.163 E12.9812
G1 X79.48 Y69.15 E13.00176
G1 X155.143 Y69.15 E15.51832
G1 X155.993 Y69.161 E15.5466
G1 X156.912 Y69.214 E15.57721
G1 X157.823 Y69.347 E15.60783
G1 X158.719 Y69.558 E15.63845
G1 X159.593 Y69.846 E15.66906
G1 X160.44 Y70.209 E15.69971
G1 X161.251 Y70.644 E15.73032
G1 X162.021 Y71.148 E15.76092
G1 X162.745 Y71.717 E15.79155
G1 X163.417 Y72.347 E15.82219
G1 X164.032 Y73.032 E15.85281
G1 X164.585 Y73.768 E15.88343
G1 X165.072 Y74.549 E15.91404
G1 X165.489 Y75.37 E15.94466
G1 X165.834 Y76.224 E15.9753
G1 X166.103 Y77.104 E16.00591
G1 X166.295 Y78.005 E16.03655
G1 X166.408 Y78.918 E16.06714
G1 X166.446 Y79.782 E16.09591
G1 X166.449 Y154.645 E18.58586
G1 X166.44 Y155.372 E18.61004
G1 X166.389 Y156.291 E18.64066
G1 X166.258 Y157.203 E18.6713
G1 X166.048 Y158.099 E18.70191
G1 X165.762 Y158.974 E18.73253
G1 X165.401 Y159.821 E18.76315
G1 X164.967 Y160.633 E18.79377
G1 X164.465 Y161.405 E18.8244
G1 X163.897 Y162.13 E18.85503
G1 X163.269 Y162.803 E18.88565
G1 X162.585 Y163.419 E18.91627
G1 X161.85 Y163.973 E18.94688
G1 X161.07 Y164.462 E18.9775
G1 X160.25 Y164.881 E19.00813
G1 X159.397 Y165.227 E19.03874
G1 X158.517 Y165.498 E19.06937
G1 X157.617 Y165.691 E19.09998
G1 X156.703 Y165.806 E19.13062
G1 X156.138 Y165.837 E19.14944
G1 X155.52 Y165.85 E19.17
G1 X79.72 Y165.849 E21.69112
G1 X79.022 Y165.84 E21.71434
G1 X78.103 Y165.788 E21.74495
G1 X77.192 Y165.657 E21.77556
G1 X76.296 Y165.447 E21.80617
G1 X75.421 Y165.16 E21.8368
G1 X74.574 Y164.798 E21.86744
G1 X73.762 Y164.364 E21.89806
G1 X72.991 Y163.862 E21.92866
G1 X72.266 Y163.294 E21.95929
G1 X71.593 Y162.665 E21.98993
G1 X70.978 Y161.981 E22.02052
G1 X70.424 Y161.246 E22.05114
G1 X69.936 Y160.465 E22.08177
G1 X69.517 Y159.645 E22.11239
G1 X69.171 Y158.792 E22.14301
G1 X68.901 Y157.912 E22.17363
G1 X68.708 Y157.011 E22.20427
G1 X68.594 Y156.098 E22.23488
G1 X68.563 Y155.527 E22.2539
G1 X68.55 Y154.908 E22.27449
G1 X68.551 Y80.281 E24.75659
G0 F6000 X68.951 Y80.286
G1 F900 X68.96 Y79.621 E24.77871
G1 X69.012 Y78.719 E24.80876
G1 X69.144 Y77.826 E24.83879
G1 X69.354 Y76.948 E24.86881
G1 X69.641 Y76.091 E24.89887
G1 X70.003 Y75.264 E24.9289
G1 X70.436 Y74.472 E24.95892
G1 X70.938 Y73.721 E24.98897
G1 X71.505 Y73.017 E25.01903
G1 X72.131 Y72.367 E25.04905
G1 X72.812 Y71.774 E25.07908
G1 X73.544 Y71.244 E25.10914
G1 X74.319 Y70.781 E25.13916
G1 X75.132 Y70.388 E25.1692
G1 X75.977 Y70.068 E25.19925
G1 X76.846 Y69.825 E25.22926
G1 X77.734 Y69.659 E25.25931
G1 X78.873 Y69.563 E25.29733
G1 X79.48 Y69.55 E25.31752
G1 X155.143 Y69.55 E27.83408
G1 X155.987 Y69.561 E27.86216
G1 X156.889 Y69.614 E27.89221
G1 X157.782 Y69.746 E27.92223
G1 X158.66 Y69.957 E27.95227
G1 X159.516 Y70.245 E27.9823
G1 X160.343 Y70.607 E28.01233
G1 X161.135 Y71.042 E28.04238
G1 X161.886 Y71.544 E28.07243
G1 X162.589 Y72.111 E28.10247
G1 X163.239 Y72.738 E28.13251
G1 X163.831 Y73.42 E28.16254
G1 X164.361 Y74.151 E28.19257
G1 X164.823 Y74.927 E28.22261
G1 X165.216 Y75.74 E28.25265
G1 X165.534 Y76.585 E28.28268
G1 X165.777 Y77.455 E28.31272
G1 X165.942 Y78.343 E28.34276
G1 X166.037 Y79.473 E28.38048
G1 X166.05 Y80.08 E28.40067
G1 X166.049 Y154.64 E30.88055
G1 X166.04 Y155.367 E30.90473
G1 X165.989 Y156.269 E30.93478
G1 X165.858 Y157.163 E30.96483
G1 X165.649 Y158.041 E30.99485
G1 X165.363 Y158.898 E31.0249
G1 X165.002 Y159.726 E31.05494
G1 X164.57 Y160.518 E31.08494
G1 X164.069 Y161.27 E31.115
G1 X163.503 Y161.974 E31.14504
G1 X162.878 Y162.625 E31.17506
G1 X162.197 Y163.219 E31.20511
G1 X161.466 Y163.75 E31.23517
G1 X160.692 Y164.214 E31.26518
G1 X159.879 Y164.608 E31.29523
G1 X159.035 Y164.928 E31.32525
G1 X158.165 Y165.173 E31.35531
G1 X157.278 Y165.339 E31.38533
G1 X156.127 Y165.437 E31.42375
G1 X155.52 Y165.45 E31.44394
G1 X79.725 Y165.449 E33.96489
G1 X79.027 Y165.44 E33.98811
G1 X78.126 Y165.389 E34.01813
G1 X77.232 Y165.257 E34.04818
G1 X76.354 Y165.048 E34.0782
G1 X75.497 Y164.761 E34.10826
G1 X74.67 Y164.4 E34.13827
G1 X73.877 Y163.967 E34.16832
G1 X73.126 Y163.466 E34.19835
G1 X72.422 Y162.9 E34.22839
G1 X71.771 Y162.274 E34.25843
G1 X71.178 Y161.593 E34.28847
G1 X70.648 Y160.862 E34.3185
G1 X70.184 Y160.087 E34.34854
G1 X69.79 Y159.274 E34.37859
G1 X69.47 Y158.43 E34.40861
G1 X69.226 Y157.56 E34.43866
G1 X69.06 Y156.672 E34.46871
G1 X68.963 Y155.517 E34.50726
G1 X68.95 Y154.908 E34.52752
G1 X68.951 Y80.286 E37.00946
G1 F2700 E32.00946
;MESH:simple-plates-top.stl
G0 F6000 X78.485 Y80.286
G0 X79.58 Y80.286
G0 X80.585 Y84.207
G0 X80.899 Y84.783
G0 X81.369 Y85.239
G0 X81.843 Y85.479
G0 X83.406 Y85.895
G1 F2700 E37.00946
G0 F6000 X83.209 Y85.319
;TYPE:WALL-OUTER
G1 F900 X82.912 Y85.383 E37.01956
G1 X82.526 Y85.395 E37.03241
G1 X82.234 Y85.355 E37.04221
G1 X81.864 Y85.233 E37.05517
G1 X81.533 Y85.048 E37.06778
G1 X81.237 Y84.794 E37.08075
G1 X80.999 Y84.487 E37.09367
G1 X80.826 Y84.14 E37.10657
G1 X80.727 Y83.763 E37.11953
G1 X80.702 Y83.375 E37.13247
G1 X80.735 Y83.081 E37.14231
G1 X80.845 Y82.714 E37.15505
G1 X81.025 Y82.373 E37.16787
G1 X81.268 Y82.073 E37.18072
G1 X81.661 Y81.771 E37.1972
G1 F902.3 X82.092 Y81.582 E37.21281
G1 X82.15 Y81.566 E37.21481
G1 F900 X82.759 Y81.505 E37.23517
G1 X83.066 Y81.544 E37.24546
G1 X83.436 Y81.667 E37.25843
G1 X83.767 Y81.852 E37.27104
G1 X84.061 Y82.104 E37.28392
G1 X84.301 Y82.413 E37.29693
G1 X84.473 Y82.758 E37.30975
G1 X84.573 Y83.135 E37.32273
G1 X84.598 Y83.525 E37.33572
G1 X84.565 Y83.819 E37.34556
G1 X84.455 Y84.186 E37.35831
G1 X84.285 Y84.508 E37.37042
G1 X84.062 Y84.789 E37.38235
G1 X83.639 Y85.13 E37.40042
G1 X83.209 Y85.319 E37.41604
G0 F6000 X82.991 Y85.775
;TYPE:WALL-INNER
G1 F900 X82.536 Y85.795 E37.43119
G1 X82.175 Y85.751 E37.44329
G1 X81.735 Y85.612 E37.45863
G1 X81.335 Y85.396 E37.47375
G1 X80.973 Y85.095 E37.48941
G1 X80.68 Y84.729 E37.50501
G1 X80.466 Y84.314 E37.52054
G1 F801.8 X80.291 Y83.873 E37.53825
G1 F739.2 X80.264 Y83.399 E37.55748
G1 F742.3 X80.291 Y83.026 E37.57256
G1 F805.4 X80.463 Y82.596 E37.58977
G1 F900 X80.673 Y82.183 E37.60518
G1 X80.96 Y81.818 E37.62062
G1 X81.421 Y81.451 E37.64022
G1 F902.3 X81.934 Y81.213 E37.65898
G1 X82.11 Y81.168 E37.66501
G1 F900 X82.719 Y81.107 E37.68537
G1 X83.125 Y81.148 E37.69894
G1 X83.565 Y81.288 E37.7143
G1 X83.965 Y81.504 E37.72942
G1 X84.324 Y81.802 E37.74494
G1 X84.619 Y82.171 E37.76065
G1 X84.833 Y82.584 E37.77612
G1 X84.961 Y83.035 E37.79171
G1 X84.998 Y83.503 E37.80733
G1 X84.962 Y83.868 E37.81953
G1 X84.837 Y84.304 E37.83461
G1 X84.637 Y84.698 E37.84931
G1 X84.37 Y85.045 E37.86387
G1 X83.879 Y85.45 E37.88504
G1 X83.365 Y85.687 E37.90387
G1 X82.991 Y85.775 E37.91664
G1 F2700 E32.91664
G0 F6000 X83.031 Y85.981
G0 X84.127 Y86.449
G0 X90.575 Y95.116
G0 X89.308 Y99.947
G0 X89.114 Y101.542
G0 X89.158 Y103.147
G0 X89.44 Y104.728
G0 X89.955 Y106.249
G0 X90.691 Y107.677
G0 X91.633 Y108.978
G0 X92.758 Y110.128
G0 X94.041 Y111.094
G0 X95.454 Y111.858
G0 X96.965 Y112.404
G0 X98.24 Y112.657
G0 X100.155 Y112.856
G1 F2700 E37.91664
G0 F6000 X100.124 Y112.246
;TYPE:WALL-OUTER
G1 F900 X99.615 Y112.247 E37.93357
G1 X99.083 Y112.221 E37.95129
G1 X98.601 Y112.172 E37.9674
G1 X98.099 Y112.098 E37.98428
G1 X97.612 Y112.002 E38.00079
G1 X97.106 Y111.875 E38.01814
G1 X96.62 Y111.724 E38.03507
G1 X96.157 Y111.556 E38.05145
G1 X95.673 Y111.355 E38.06888
G1 X95.213 Y111.136 E38.08583
G1 X94.767 Y110.892 E38.10273
G1 X94.333 Y110.628 E38.11963
G1 X93.911 Y110.343 E38.13657
G1 X93.506 Y110.035 E38.15349
G1 X93.116 Y109.711 E38.17035
G1 X92.741 Y109.366 E38.1873
G1 X92.386 Y109.002 E38.20421
G1 X92.047 Y108.62 E38.2212
G1 X91.73 Y108.223 E38.2381
G1 X91.434 Y107.812 E38.25494
G1 X91.154 Y107.385 E38.27193
G1 X90.889 Y106.924 E38.28961
G1 X90.668 Y106.494 E38.30569
G1 X90.459 Y106.03 E38.32262
G1 X90.266 Y105.543 E38.34004
G1 X90.108 Y105.075 E38.35647
G1 X89.97 Y104.586 E38.37337
G1 X89.851 Y104.077 E38.39076
G1 X89.767 Y103.588 E38.40726
G1 X89.703 Y103.085 E38.42412
G1 X89.664 Y102.577 E38.44107
G1 X89.65 Y102.082 E38.45754
G1 X89.662 Y101.562 E38.47484
G1 X89.699 Y101.055 E38.49175
G1 X89.761 Y100.549 E38.5087
G1 X89.846 Y100.062 E38.52514
G1 X89.96 Y99.551 E38.54256
G1 X90.098 Y99.063 E38.55943
G1 X90.259 Y98.58 E38.57636
G1 X90.444 Y98.105 E38.59331
G1 X90.651 Y97.643 E38.61015
G1 X90.882 Y97.19 E38.62707
G1 X91.136 Y96.748 E38.64402
G1 X91.411 Y96.323 E38.66086
G1 X91.707 Y95.907 E38.67784
G1 X92.025 Y95.509 E38.69478
G1 X92.359 Y95.125 E38.71171
G1 X92.713 Y94.762 E38.72857
G1 X93.085 Y94.417 E38.74545
G1 X93.474 Y94.088 E38.76239
G1 X93.88 Y93.781 E38.77932
G1 X94.305 Y93.489 E38.79647
G1 X94.734 Y93.226 E38.81321
G1 X95.179 Y92.982 E38.83009
G1 X95.638 Y92.762 E38.84702
G1 X96.104 Y92.563 E38.86387
G1 X96.584 Y92.387 E38.88088
G1 X97.069 Y92.236 E38.89777
G1 X97.574 Y92.106 E38.91512
G1 X98.059 Y92.009 E38.93157
G1 X98.563 Y91.932 E38.94852
G1 X99.067 Y91.88 E38.96538
G1 X99.576 Y91.854 E38.98233
G1 X100.085 Y91.853 E38.99926
G1 X100.592 Y91.877 E39.01614
G1 X101.099 Y91.928 E39.03309
G1 X101.601 Y92.002 E39.04996
G1 X102.088 Y92.098 E39.06647
G1 X102.594 Y92.225 E39.08382
G1 X103.08 Y92.376 E39.10075
G1 X103.543 Y92.544 E39.11713
G1 X104.027 Y92.745 E39.13456
G1 X104.485 Y92.963 E39.15143
G1 X104.933 Y93.208 E39.16842
G1 X105.367 Y93.472 E39.18531
G1 X105.789 Y93.757 E39.20225
G1 X106.193 Y94.064 E39.21913
G1 X106.583 Y94.388 E39.23599
G1 X106.958 Y94.733 E39.25294
G1 X107.314 Y95.098 E39.2699
G1 X107.652 Y95.479 E39.28684
G1 X107.969 Y95.876 E39.30373
G1 X108.266 Y96.288 E39.32063
G1 X108.545 Y96.714 E39.33756
G1 X108.798 Y97.154 E39.35444
G1 X109.032 Y97.606 E39.37137
G1 X109.242 Y98.069 E39.38828
G1 X109.434 Y98.556 E39.40569
G1 X109.592 Y99.024 E39.42212
G1 X109.73 Y99.513 E39.43902
G1 X109.849 Y100.023 E39.45644
G1 X109.933 Y100.511 E39.47291
G1 X109.997 Y101.014 E39.48978
G1 X110.036 Y101.522 E39.50672
G1 X110.05 Y102.029 E39.52359
G1 X110.038 Y102.538 E39.54052
G1 X110.001 Y103.045 E39.55743
G1 X109.933 Y103.589 E39.57567
G1 X109.854 Y104.038 E39.59083
G1 X109.74 Y104.549 E39.60824
G1 X109.602 Y105.037 E39.62511
G1 X109.438 Y105.529 E39.64236
G1 X109.257 Y105.994 E39.65896
G1 X109.049 Y106.457 E39.67584
G1 X108.812 Y106.923 E39.69323
G1 X108.551 Y107.372 E39.7105
G1 X108.289 Y107.777 E39.72654
G1 X107.993 Y108.193 E39.74353
G1 X107.675 Y108.591 E39.76047
G1 X107.341 Y108.975 E39.7774
G1 X106.987 Y109.338 E39.79426
G1 X106.615 Y109.683 E39.81114
G1 X106.207 Y110.028 E39.82891
G1 X105.82 Y110.319 E39.84501
G1 X105.395 Y110.611 E39.86216
G1 X104.944 Y110.887 E39.87975
G1 X104.5 Y111.13 E39.89658
G1 X104.063 Y111.339 E39.91269
G1 X103.596 Y111.537 E39.92956
G1 X103.116 Y111.713 E39.94657
G1 X102.631 Y111.864 E39.96346
G1 X102.126 Y111.994 E39.98081
G1 X101.641 Y112.091 E39.99726
G1 X101.137 Y112.168 E40.01422
G1 X100.633 Y112.22 E40.03107
G1 X100.124 Y112.246 E40.04802
G0 F6000 X100.14 Y112.646
;TYPE:WALL-INNER
G1 F900 X99.596 Y112.647 E40.06611
G1 X99.043 Y112.619 E40.08453
G1 X98.543 Y112.568 E40.10125
G1 X98.021 Y112.49 E40.1188
G1 X97.515 Y112.39 E40.13596
G1 X96.988 Y112.257 E40.15403
G1 X96.484 Y112.1 E40.17159
G1 X96.004 Y111.926 E40.18857
G1 X95.501 Y111.716 E40.2067
G1 X95.021 Y111.487 E40.22439
G1 X94.559 Y111.234 E40.24191
G1 X94.109 Y110.96 E40.25943
G1 X93.669 Y110.661 E40.27713
G1 X93.25 Y110.343 E40.29462
G1 X92.846 Y110.005 E40.31214
G1 X92.455 Y109.646 E40.3298
G1 X92.087 Y109.268 E40.34734
G1 X91.734 Y108.87 E40.36504
G1 X91.406 Y108.457 E40.38258
G1 X91.1 Y108.032 E40.4
G1 X90.808 Y107.585 E40.41775
G1 X90.533 Y107.106 E40.43613
G1 X90.304 Y106.659 E40.45283
G1 X90.087 Y106.178 E40.47038
G1 X89.887 Y105.671 E40.48851
G1 X89.723 Y105.184 E40.5056
G1 X89.58 Y104.677 E40.52312
G1 X89.457 Y104.145 E40.54128
G1 X89.37 Y103.639 E40.55836
G1 X89.304 Y103.116 E40.57589
G1 X89.264 Y102.588 E40.5935
G1 X89.25 Y102.093 E40.60997
G1 X89.263 Y101.533 E40.6286
G1 X89.302 Y101.006 E40.64618
G1 X89.367 Y100.481 E40.66377
G1 X89.456 Y99.976 E40.68083
G1 X89.575 Y99.443 E40.69899
G1 X89.718 Y98.937 E40.71648
G1 X89.886 Y98.435 E40.73409
G1 X90.079 Y97.941 E40.75173
G1 X90.295 Y97.461 E40.76924
G1 X90.535 Y96.99 E40.78682
G1 X90.8 Y96.531 E40.80445
G1 X91.085 Y96.091 E40.82188
G1 X91.394 Y95.657 E40.8396
G1 X91.723 Y95.247 E40.85709
G1 X92.073 Y94.846 E40.87479
